; generated by PrusaSlicer 2.9.3 on 2025-10-29 at 02:29:45 UTC


;
;
; 

; external perimeters extrusion width = 0.45mm
; perimeters extrusion width = 0.45mm
; infill extrusion width = 0.45mm
; solid infill extrusion width = 0.45mm
; top infill extrusion width = 0.40mm
; first layer extrusion width = 0.42mm

M73 P0 R11
M73 Q0 S11
M201 X1000 Y1000 Z200 E5000 ; sets maximum accelerations, mm/sec^2
M203 X200 Y200 Z12 E120 ; sets maximum feedrates, mm / sec
M204 S1250 T1250 ; sets acceleration (S) and retract acceleration (R), mm/sec^2
M205 X8.00 Y8.00 Z0.40 E4.50 ; sets the jerk limits, mm/sec
M205 S0 T0 ; sets the minimum extruding and travel feed rate, mm/sec

; printing object Hinge Mae Nova id:0 copy 0
; stop printing object Hinge Mae Nova id:0 copy 0

;TYPE:Custom
M862.3 P "MK3S" ; printer model check
M862.1 P0.4 ; nozzle diameter check
M115 U3.14.1 ; tell printer latest fw version
G90 ; use absolute coordinates
M83 ; extruder relative mode
M104 S215 ; set extruder temp
M140 S60 ; set bed temp
M190 S60 ; wait for bed temp
M109 S215 ; wait for extruder temp
G28 W ; home all without mesh bed level
G80 X107.218 Y94.1911 W35.5418 H21.6191 ; mesh bed levelling

G1 Z0.2 F720
G1 Y-3 F1000 ; go outside print area
G92 E0
G1 X60 E9 F1000 ; intro line
G1 X100 E12.5 F1000 ; intro line

G92 E0
M221 S95

; Don't change E values below. Excessive value can damage the printer.
M907 E430 ; set extruder motor current
G21 ; set units to millimeters
G90 ; use absolute coordinates
M83 ; use relative distances for extrusion

M900 K0.05 ; Filament gcode LA 1.5
M900 K30 ; Filament gcode LA 1.0




M107
;LAYER_CHANGE
;Z:0.2
;HEIGHT:0.2
G1 E-.8 F2100
G1 Z.6 F720
G1 X108.648 Y95.93 F10800
G1 Z.2 F720
M73 P1 R11
M73 Q1 S11
G1 E.8 F2100
M204 S800
;TYPE:Skirt/Brim
;WIDTH:0.42
G1 F1200
G1 X109.493 Y95.225 E.0345
G1 X110.712 Y94.67 E.042
G1 X111.953 Y94.49 E.03932
G1 X138.09 Y94.384 E.81951
G1 X138.877 Y94.476 E.02484
G1 X139.699 Y94.728 E.02696
G1 X140.402 Y95.093 E.02484
G1 X141.081 Y95.621 E.02697
G1 X141.609 Y96.211 E.02483
G1 X142.057 Y96.945 E.02696
G1 X142.341 Y97.685 E.02485
G1 X142.5 Y98.53 E.02696
G1 X142.572 Y110.926 E.38867
G1 X142.518 Y111.629 E.02211
G1 X142.332 Y112.399 E.02484
G1 X141.858 Y113.392 E.0345
G1 X141.331 Y114.071 E.02695
G1 X140.486 Y114.776 E.0345
G1 X139.267 Y115.331 E.042
G1 X138.026 Y115.511 E.03932
G1 X111.89 Y115.618 E.81948
G1 X110.801 Y115.453 E.03453
G1 X109.784 Y115.032 E.03451
G1 X108.898 Y114.381 E.03447
G1 X108.193 Y113.536 E.0345
G1 X107.703 Y112.524 E.03525
G1 X107.464 Y111.23 E.04126
G1 X107.425 Y98.679 E.39353
G1 X107.576 Y97.833 E.02694
G1 X107.996 Y96.816 E.0345
G1 X108.612 Y95.978 E.03261
M204 S1000
G1 X108.913 Y96.198 F10800
M204 S800
G1 F1200
G1 X108.916 Y96.195 E.00013
G1 X109.689 Y95.547 E.03163
G1 X110.826 Y95.03 E.03916
G1 X111.955 Y94.868 E.03576
G1 X138.069 Y94.76 E.81879
G1 X138.811 Y94.847 E.02342
M73 P2 R11
M73 Q2 S11
G1 X139.546 Y95.073 E.02411
G1 X140.208 Y95.417 E.02339
G1 X140.816 Y95.888 E.02411
G1 X141.313 Y96.445 E.02341
G1 X141.714 Y97.101 E.02411
G1 X141.981 Y97.798 E.0234
G1 X142.123 Y98.554 E.02412
G1 X142.178 Y111.301 E.39968
G1 X141.971 Y112.288 E.03162
G1 X141.535 Y113.198 E.03164
G1 X141.063 Y113.806 E.02413
G1 X140.289 Y114.454 E.03165
G1 X139.153 Y114.972 E.03915
G1 X138.024 Y115.134 E.03576
G1 X111.911 Y115.241 E.81876
G1 X110.911 Y115.092 E.0317
G1 X109.978 Y114.709 E.03162
G1 X109.163 Y114.113 E.03166
G1 X108.515 Y113.339 E.03165
G1 X108.07 Y112.433 E.03165
G1 X107.84 Y111.206 E.03914
G1 X107.801 Y98.701 E.39209
G1 X107.936 Y97.944 E.02411
G1 X108.32 Y97.01 E.03166
G1 X108.878 Y96.247 E.02964
M204 S1000
;WIPE_START
G1 F8640
G1 X108.913 Y96.198 E-.0139
G1 X108.916 Y96.195 E-.00098
G1 X109.689 Y95.547 E-.23291
G1 X110.826 Y95.03 E-.2884
G1 X111.955 Y94.868 E-.26336
G1 X111.957 Y94.868 E-.00045
;WIPE_END
G1 Z.6 F720
; printing object Hinge Mae Nova id:0 copy 0
G1 X121.409 Y111.019 F10800
G1 Z.2 F720
G1 E.8 F2100
M204 S800
;TYPE:Perimeter
;WIDTH:0.419999
G1 F1200
G1 X121.465 Y111.09 E.00284
G1 X121.805 Y111.201 E.01121
G1 X124.611 Y111.189 E.08798
G1 X124.612 Y111.703 E.01612
G1 X124.614 Y112.215 E.01605
G1 X112.151 Y112.268 E.39077
G1 X111.887 Y112.247 E.0083
G1 X111.468 Y112.128 E.01366
G1 X111.131 Y111.855 E.0136
G1 X110.897 Y111.489 E.01362
G1 X110.812 Y111.037 E.01442
G1 X110.762 Y99.182 E.37171
G1 X110.783 Y98.917 E.00833
G1 X110.902 Y98.499 E.01363
G1 X111.175 Y98.162 E.0136
G1 X111.541 Y97.928 E.01362
G1 X111.993 Y97.843 E.01442
G1 X124.574 Y97.789 E.39447
G1 X124.577 Y98.815 E.03217
M73 Q3 S11
G1 X121.752 Y98.827 E.08858
M73 P3 R11
G1 X121.413 Y98.942 E.01122
G1 X121.231 Y99.178 E.00934
G1 X121.189 Y99.395 E.00693
G1 X121.237 Y110.638 E.35252
G1 X121.281 Y110.856 E.00697
G1 X121.372 Y110.972 E.00462
M204 S1000
G1 X121.666 Y110.739 F10800
M204 S800
;TYPE:External perimeter
G1 F1200
G1 X121.69 Y110.787 E.00168
G1 X121.803 Y110.824 E.00373
G1 X124.987 Y110.811 E.09983
G1 X124.989 Y111.702 E.02794
G1 X124.992 Y112.591 E.02787
G1 X112.153 Y112.646 E.40256
G1 X111.652 Y112.6 E.01577
M73 P3 R10
G1 X111.293 Y112.465 E.01203
G1 X110.977 Y112.249 E.012
G1 X110.722 Y111.964 E.01199
G1 X110.543 Y111.626 E.01199
G1 X110.435 Y111.05 E.01837
G1 X110.385 Y99.184 E.37205
G1 X110.431 Y98.683 E.01577
M73 Q3 S10
G1 X110.565 Y98.324 E.01201
G1 X110.781 Y98.008 E.012
G1 X111.066 Y97.753 E.01199
G1 X111.405 Y97.574 E.01202
G1 X111.98 Y97.466 E.01834
G1 X124.95 Y97.411 E.40667
G1 X124.955 Y99.191 E.05581
G1 X121.754 Y99.204 E.10037
G1 X121.641 Y99.243 E.00375
G1 X121.566 Y99.394 E.00529
G1 X121.614 Y110.637 E.35252
G1 X121.639 Y110.686 E.00172
M204 S1000
;WIPE_START
G1 F8640
G1 X121.666 Y110.739 E-.01373
G1 X121.69 Y110.787 E-.01239
G1 X121.803 Y110.824 E-.02746
G1 X124.987 Y110.811 E-.7352
G1 X124.987 Y110.86 E-.01122
;WIPE_END
G1 Z.6 F720
G1 X123.653 Y97.944 F10800
G1 Z.2 F720
G1 E.8 F2100
M204 S800
;TYPE:Solid infill
;WIDTH:0.425731
G1 F1200
G1 X124.206 Y98.497 E.02489
G1 X123.669 Y98.502 E.01709
G1 X123.283 Y98.115 E.0174
G1 X122.743 Y98.118 E.01719
G1 X123.132 Y98.506 E.01749
G1 X122.595 Y98.511 E.01709
G1 X122.204 Y98.12 E.0176
G1 X121.665 Y98.122 E.01716
G1 X122.058 Y98.515 E.01769
G1 X121.593 Y98.519 E.0148
G1 X121.543 Y98.541 E.00174
G1 X121.126 Y98.125 E.01875
G1 X120.587 Y98.127 E.01716
G1 X121.185 Y98.724 E.0269
G1 X120.949 Y99.03 E.0123
G1 X120.048 Y98.129 E.04056
G1 X119.509 Y98.132 E.01716
G1 X120.869 Y99.491 E.0612
G1 X120.871 Y100.035 E.01732
G1 X118.97 Y98.134 E.08557
G1 X118.431 Y98.136 E.01716
G1 X120.873 Y100.579 E.10995
G1 X120.876 Y101.122 E.01728
G1 X117.892 Y98.138 E.13433
G1 X117.353 Y98.141 E.01716
G1 X120.878 Y101.666 E.15868
G1 X120.88 Y102.21 E.01732
G1 X116.814 Y98.143 E.18306
G1 X116.275 Y98.145 E.01716
M73 Q4 S10
G1 X120.883 Y102.753 E.20743
G1 X120.885 Y103.297 E.01732
M73 P4 R10
G1 X115.735 Y98.148 E.23181
G1 X115.196 Y98.15 E.01716
G1 X120.887 Y103.841 E.25618
G1 X120.89 Y104.385 E.01732
G1 X114.657 Y98.152 E.28058
G1 X114.118 Y98.155 E.01716
G1 X120.892 Y104.928 E.30491
G1 X120.894 Y105.472 E.01732
G1 X113.579 Y98.157 E.32929
G1 X113.04 Y98.159 E.01716
G1 X120.897 Y106.016 E.35369
G1 X120.899 Y106.559 E.01728
G1 X112.501 Y98.161 E.37804
G1 X111.964 Y98.166 E.01709
G1 X120.901 Y107.103 E.4023
G1 X120.903 Y107.647 E.01732
G1 X111.545 Y98.289 E.42126
G1 X111.468 Y98.33 E.00278
G1 X111.309 Y98.472 E.00679
G1 X111.259 Y98.544 E.00279
G1 X120.906 Y108.19 E.43424
G1 X120.908 Y108.734 E.01732
G1 X111.104 Y98.93 E.44133
G1 X111.082 Y99.12 E.00609
M73 Q5 S10
G1 X111.083 Y99.451 E.01054
G1 X120.91 Y109.278 E.44237
G1 X120.913 Y109.821 E.01728
M73 P5 R10
G1 X111.086 Y99.995 E.44235
G1 X111.088 Y100.538 E.01728
G1 X121.086 Y110.536 E.45007
M204 S1000
;WIPE_START
G1 F8640
G1 X118.636 Y108.086 E-.8
;WIPE_END
G1 Z.6 F720
G1 X124.058 Y111.343 F10800
G1 Z.2 F720
G1 E.8 F2100
M204 S800
G1 F1200
G1 X124.291 Y111.576 E.01049
G1 X124.292 Y111.896 E.01019
G1 X124.071 Y111.897 E.00703
G1 X123.688 Y111.514 E.01724
G1 X123.149 Y111.516 E.01716
G1 X123.532 Y111.899 E.01724
G1 X122.993 Y111.902 E.01716
G1 X122.61 Y111.518 E.01726
G1 X122.071 Y111.521 E.01716
G1 X122.454 Y111.904 E.01724
G1 X121.915 Y111.906 E.01716
G1 X111.09 Y101.082 E.48727
G1 X111.093 Y101.626 E.01732
G1 X121.376 Y111.909 E.4629
G1 X120.837 Y111.911 E.01716
G1 X111.095 Y102.169 E.43854
G1 X111.097 Y102.713 E.01732
G1 X120.298 Y111.913 E.41417
G1 X119.758 Y111.915 E.01719
G1 X111.1 Y103.257 E.38975
G1 X111.102 Y103.8 E.01728
G1 X119.219 Y111.918 E.36541
G1 X118.68 Y111.92 E.01716
M73 P6 R10
M73 Q6 S10
G1 X111.104 Y104.344 E.34104
G1 X111.107 Y104.888 E.01732
G1 X118.141 Y111.922 E.31664
G1 X117.602 Y111.925 E.01716
G1 X111.109 Y105.432 E.29229
G1 X111.111 Y105.975 E.01728
G1 X117.063 Y111.927 E.26793
G1 X116.524 Y111.929 E.01716
G1 X111.114 Y106.519 E.24353
G1 X111.116 Y107.063 E.01732
G1 X115.985 Y111.932 E.21918
G1 X115.446 Y111.934 E.01716
G1 X111.118 Y107.606 E.19483
G1 X111.121 Y108.15 E.01732
G1 X114.907 Y111.936 E.17043
G1 X114.368 Y111.938 E.01716
G1 X111.123 Y108.694 E.14605
G1 X111.125 Y109.237 E.01728
G1 X113.829 Y111.941 E.12172
G1 X113.29 Y111.943 E.01716
G1 X111.128 Y109.781 E.09732
G1 X111.13 Y110.325 E.01732
G1 X112.75 Y111.945 E.07293
G1 X112.211 Y111.948 E.01716
G1 X111.132 Y110.868 E.04859
G1 X111.14 Y111.14 E.00866
G1 X111.199 Y111.374 E.00768
G1 X111.299 Y111.562 E.00678
G1 X111.809 Y112.086 E.02328
M204 S1000
;WIPE_START
G1 F8640
G1 X111.299 Y111.562 E-.16884
G1 X111.199 Y111.374 E-.04917
G1 X111.14 Y111.14 E-.05572
G1 X111.132 Y110.868 E-.06283
G1 X112.211 Y111.948 E-.35251
G1 X112.692 Y111.946 E-.11093
;WIPE_END
G1 Z.6 F720
G1 X128.606 Y109.366 F10800
G1 Z.2 F720
G1 E.8 F2100
M204 S800
;TYPE:Perimeter
;WIDTH:0.419999
G1 F1200
G1 X128.478 Y109.262 E.00517
G1 X128.218 Y109.2 E.00838
G1 X125.409 Y109.212 E.08807
G1 X125.36 Y100.786 E.2642
G1 X128.182 Y100.774 E.08848
G1 X128.287 Y100.764 E.00331
G1 X128.499 Y100.675 E.00721
G1 X128.665 Y100.5 E.00756
G1 X128.745 Y100.206 E.00955
G1 X128.735 Y97.772 E.07632
G1 X137.827 Y97.733 E.28508
G1 X138.092 Y97.754 E.00833
M73 Q7 S10
G1 X138.51 Y97.873 E.01363
G1 X138.848 Y98.146 E.01362
G1 X139.081 Y98.512 E.0136
M73 P7 R10
G1 X139.166 Y98.964 E.01442
G1 X139.208 Y110.979 E.37672
G1 X139.196 Y111.084 E.00331
G1 X139.077 Y111.502 E.01363
G1 X138.804 Y111.84 E.01362
G1 X138.438 Y112.073 E.0136
G1 X137.986 Y112.158 E.01442
G1 X128.797 Y112.197 E.28812
G1 X128.786 Y109.763 E.07632
G1 X128.771 Y109.635 E.00404
G1 X128.664 Y109.414 E.0077
G1 X128.652 Y109.404 E.00049
M204 S1000
G1 X128.323 Y109.626 F10800
M204 S800
;TYPE:External perimeter
G1 F1200
G1 X128.22 Y109.577 E.00358
G1 X125.034 Y109.591 E.0999
G1 X124.981 Y100.411 E.28784
G1 X128.181 Y100.397 E.10033
G1 X128.302 Y100.352 E.00405
G1 X128.368 Y100.208 E.00497
G1 X128.356 Y97.396 E.08817
G1 X137.826 Y97.356 E.29693
G1 X138.327 Y97.402 E.01577
G1 X138.685 Y97.536 E.01199
G1 X139.001 Y97.752 E.012
G1 X139.256 Y98.038 E.01201
G1 X139.436 Y98.376 E.01201
G1 X139.543 Y98.951 E.01834
G1 X139.582 Y111.022 E.37848
G1 X139.548 Y111.319 E.00937
G1 X139.414 Y111.677 E.01199
G1 X139.198 Y111.993 E.012
G1 X138.912 Y112.248 E.01201
G1 X138.574 Y112.428 E.01201
G1 X137.999 Y112.535 E.01834
G1 X128.421 Y112.576 E.30031
G1 X128.409 Y109.765 E.08814
G1 X128.371 Y109.657 E.00359
M204 S1000
;WIPE_START
G1 F8640
G1 X128.323 Y109.626 E-.01319
G1 X128.22 Y109.577 E-.02634
G1 X125.034 Y109.591 E-.73566
G1 X125.033 Y109.484 E-.02481
;WIPE_END
G1 Z.6 F720
G1 X137.616 Y97.893 F10800
G1 Z.2 F720
G1 E.8 F2100
M204 S800
;TYPE:Solid infill
;WIDTH:0.421058
G1 F1200
G1 X138.839 Y99.115 E.05436
G1 X138.841 Y99.653 E.01692
G1 X137.252 Y98.063 E.07068
G1 X136.719 Y98.065 E.01676
G1 X138.844 Y100.19 E.09449
G1 X138.847 Y100.728 E.01692
G1 X136.186 Y98.067 E.11832
G1 X135.653 Y98.069 E.01676
G1 X138.849 Y101.265 E.14211
G1 X138.852 Y101.802 E.01688
G1 X135.12 Y98.071 E.16593
G1 X134.587 Y98.072 E.01676
G1 X138.855 Y102.34 E.18978
G1 X138.857 Y102.877 E.01688
G1 X134.054 Y98.074 E.21357
G1 X133.521 Y98.076 E.01676
M73 P8 R10
M73 Q8 S10
G1 X138.86 Y103.415 E.2374
G1 X138.862 Y103.952 E.01688
G1 X132.988 Y98.078 E.26119
G1 X132.455 Y98.08 E.01676
G1 X138.865 Y104.489 E.28501
G1 X138.868 Y105.027 E.01692
G1 X131.922 Y98.081 E.30886
G1 X131.389 Y98.083 E.01676
G1 X138.87 Y105.564 E.33265
G1 X138.873 Y106.102 E.01692
G1 X130.856 Y98.085 E.35648
G1 X130.323 Y98.087 E.01676
G1 X138.876 Y106.639 E.3803
G1 X138.878 Y107.176 E.01688
G1 X129.79 Y98.088 E.40411
G1 X129.257 Y98.09 E.01676
G1 X138.881 Y107.714 E.42794
G1 X138.884 Y108.251 E.01688
G1 X129.058 Y98.426 E.4369
G1 X129.061 Y98.963 E.01688
G1 X138.886 Y108.789 E.4369
G1 X138.889 Y109.326 E.01688
M73 Q9 S10
G1 X129.063 Y99.5 E.43692
G1 X129.065 Y100.037 E.01688
M73 P9 R10
G1 X138.892 Y109.864 E.43697
G1 X138.894 Y110.401 E.01688
G1 X129.009 Y100.516 E.43955
G1 X128.88 Y100.753 E.00848
G1 X128.797 Y100.839 E.00376
G1 X138.891 Y110.932 E.44882
G1 X138.865 Y111.154 E.00703
G1 X138.785 Y111.361 E.00698
G1 X128.47 Y101.046 E.45867
G1 X128.195 Y101.095 E.00878
G1 X127.984 Y101.095 E.00663
G1 X138.537 Y111.648 E.46925
G1 X138.322 Y111.772 E.0078
G1 X138.165 Y111.811 E.00509
G1 X127.452 Y101.098 E.47637
G1 X126.919 Y101.1 E.01676
G1 X137.659 Y111.839 E.47754
G1 X137.126 Y111.841 E.01676
G1 X126.387 Y101.102 E.47752
G1 X125.854 Y101.105 E.01676
M73 Q10 S10
G1 X136.594 Y111.844 E.47754
G1 X136.061 Y111.846 E.01676
M73 P10 R10
G1 X125.685 Y101.47 E.46138
G1 X125.688 Y102.008 E.01692
G1 X135.529 Y111.848 E.43757
G1 X134.996 Y111.85 E.01676
G1 X125.691 Y102.545 E.41376
G1 X125.694 Y103.083 E.01692
G1 X134.464 Y111.853 E.38997
G1 X133.931 Y111.855 E.01676
G1 X125.697 Y103.621 E.36613
G1 X125.7 Y104.159 E.01692
G1 X133.399 Y111.857 E.34232
G1 X132.866 Y111.86 E.01676
G1 X125.704 Y104.697 E.31849
G1 X125.707 Y105.235 E.01692
G1 X132.334 Y111.862 E.29468
G1 X131.801 Y111.864 E.01676
G1 X125.71 Y105.773 E.27084
G1 X125.713 Y106.311 E.01692
G1 X128.292 Y108.89 E.11468
G1 X128.513 Y108.927 E.00705
G1 X128.785 Y109.08 E.00981
G1 X128.916 Y109.215 E.00591
G1 X129.033 Y109.41 E.00715
M73 Q11 S10
G1 X129.084 Y109.563 E.00507
G1 X129.1 Y109.698 E.00427
G1 X131.269 Y111.866 E.09642
G1 X130.736 Y111.869 E.01676
G1 X129.109 Y110.241 E.07237
G1 X129.111 Y110.778 E.01688
M73 P11 R10
G1 X130.204 Y111.871 E.0486
G1 X129.671 Y111.873 E.01676
G1 X129.113 Y111.315 E.02481
G1 X129.116 Y111.853 E.01692
G1 X129.308 Y112.044 E.00852
M204 S1000
;WIPE_START
G1 F8640
G1 X129.116 Y111.853 E-.06253
G1 X129.113 Y111.315 E-.12423
G1 X129.671 Y111.873 E-.18221
G1 X130.204 Y111.871 E-.12307
G1 X129.261 Y110.928 E-.30796
;WIPE_END
G1 Z.6 F720
G1 X127.918 Y109.05 F10800
G1 Z.2 F720
G1 E.8 F2100
M204 S800
G1 F1200
G1 X125.716 Y106.849 E.09789
G1 X125.719 Y107.386 E.01688
G1 X127.216 Y108.884 E.06659
G1 X126.684 Y108.886 E.01673
G1 X125.722 Y107.924 E.04278
G1 X125.725 Y108.462 E.01692
G1 X126.32 Y109.057 E.02646
M204 S1000
M106 S84.15
;LAYER_CHANGE
;Z:0.4
;HEIGHT:0.2
;BEFORE_LAYER_CHANGE
G92 E0.0
;0.4


;WIPE_START
G1 F8640
G1 X125.725 Y108.462 E-.19429
G1 X125.722 Y107.924 E-.12423
G1 X126.684 Y108.886 E-.31414
G1 X127.216 Y108.884 E-.12284
G1 X127.08 Y108.748 E-.0445
;WIPE_END
G1 Z.4 F720
;AFTER_LAYER_CHANGE
;0.4
M104 S210 ; set temperature
; stop printing object Hinge Mae Nova id:0 copy 0
G1 Z.8
G1 X126.347 Y115.558 F10800
G1 Z.4 F720
G1 E.8 F2100
;TYPE:Skirt/Brim
;WIDTH:0.42
G1 F3000
G1 X111.89 Y115.618 E.45329
G1 X110.801 Y115.453 E.03453
G1 X109.784 Y115.032 E.03451
G1 X108.898 Y114.381 E.03447
G1 X108.193 Y113.536 E.0345
G1 X107.703 Y112.524 E.03525
G1 X107.464 Y111.23 E.04126
G1 X107.425 Y98.679 E.39353
G1 X107.576 Y97.833 E.02694
G1 X107.996 Y96.816 E.0345
G1 X108.648 Y95.93 E.03449
G1 X109.493 Y95.225 E.0345
G1 X110.712 Y94.67 E.042
G1 X111.953 Y94.49 E.03932
G1 X138.09 Y94.384 E.81951
G1 X138.877 Y94.476 E.02484
G1 X139.699 Y94.728 E.02696
G1 X140.402 Y95.093 E.02484
G1 X141.081 Y95.621 E.02697
G1 X141.609 Y96.211 E.02483
G1 X142.057 Y96.945 E.02696
G1 X142.341 Y97.685 E.02485
G1 X142.5 Y98.53 E.02696
G1 X142.572 Y110.926 E.38867
G1 X142.518 Y111.629 E.02211
G1 X142.332 Y112.399 E.02484
